X: 41687
T: Va Nancy Ayns Lunnon
R: waltz
M: 3/4
K: Edorian
EF|G2 F2 B2|ED E2 F2|GA B2 F2|E4 EF|
G2 F2 E2|dc B2 cd|e2 c2 A2|B4 EF|
G2 F2 E2|dc B2 cd|e2 c2 A2|B4 F2|
GA B2 E2|D2 E2 F2|GA B2 F2|E4||

